X:1
T:James Gibb editions
T:Psalm 37 (Becker) - Schütz
%%score [ ( 1 2 ) ( 3 4 ) ]
L:1/8
Q:1/4=100
M:2/2
K:F
V:1 treble nm="Soprano Alto"
V:2 treble 
V:3 bass nm="Tenor Bass"
V:4 bass 
V:1
"^Cornelius Becker\n(1561-1604)""^Psalm 37, SWV 134""^Heinrich Schütz\n(1585-1672)" F4 F4 | %1
w: ~Er- zürn|
w: wenn Bu-|
 c2 B4 A2 | G4 G4 | C4 G4 | A2 (F4 E2 | F2) D2 C4 :|[M:2/2] F4 | G6 B2 | A2 F2 G2 F2 | E4 A4 | %10
w: dich nicht so|seh- re,|fromm Herz,|trag kei\- *|* nen Neid,|wie|man das|Gras im Feld ab-|haut, fällt|
w: ben werd'n ge-|eh- ret|mehr denn|red- li\- *|* che Leut;|||||
 F6 D2 | E2 G2 ^F4 | G4 B4 | A4 c2 (B2- | B2 AG F2 A2) | G4 F8 |] %16
w: Bu- ben-|glück, ver- wel-|ket, gleich|wie das grü\-||~~~~~~ne Kraut.|
w: ||||||
V:2
 C4 D4 | E2 D4 C2 | C4 C4 | E4 E4 | F2 (D4 C2- | C2) =B,2 C4 :|[M:2/2] A,4 | C6 D2 | ^C2 D2 D2 D2 | %9
 ^C4 E4 | D6 A,2 | C2 B,2 D4 | D4 D4 | D4 C2 (D2- | D2 E2 D2 F2- | F2) E2 F8 |] %16
V:3
 A,4 A,4 | A,2 F,4 F,2 | E,4 E,4 | G,4 C4 | C2 (B,4 G,2 | A,2) G,2 E,4 :|[M:2/2] D,4 | E,6 G,2 | %8
 E,2 D,2 B,2 A,2 | A,4 C4 | A,6 F,2 | G,2 G,2 A,4 | %12
 =B,4"^2. Auf Gott dein Hoffnung stelle, \nfurcht ihn, und bleib im Land, \ntu was ihm wohlgefället, \nnähr dich redlicher Hand, \nhab deine Lust an Gott, dem Herrn, \nwas dein Herz nur wird wünschen, \nwird er dir alls gewährn.\n\n3. Befiehl ihm deine Wege, \ner wird's recht machen wohl, \nall dein Sorg auf ihn lege. \nAns Taglicht kommen soll\ndein Unschuld und Gerechtigkeit,\ndein Recht wird sonnenklare, \nwenn Gott hilft mit der Zeit.\n\n4. Wart drauf, und sei nur stille, \nhalt an dich, denk zurück, \nobgleich des Bösen Wille \nfort geht mit gutem Glück, \nsollt du darob doch zürnen nicht, \nkein Neid und Rachgier tragen,\ngreifst sonst in Gotts Gericht." G,4 | %13
 F,4 A,2 (F,2- | %14
"^9. Endlich muß doch zergehen\nihr Frevel, Macht und Pracht, \nder G'rechte soll fest stehen, \ndenn Gott hält ihn in Acht, \nzur bösen Zeit gschicht ihm kein Leid, \ner muß Gott und gnug haben \nauch in der teuren Zeit.\n\n10. Vertilget müssen werden \nzu Grund des Herren Feind, \nobgleich ein Weil auf Erden \ndas Glück warm ihnen scheint, \nim Flor wie ein schön Au sie stehn, \nzuletzt sie doch gar schmählich \ngleichwie der Rauch vergehn.\n\n20. Der Herr ist unsre Hülfe \nund Zuflucht in der Not, \nwenn wir Beistands bedürfen \nwider die Frevelrott, \nder starke Gott durch seine Kraft \nallen, die ihm vertrauen,\nHülf und Errettung schafft." F,2 C2 A,2 C2- | %15
 C2) C2 C8 |] %16
V:4
 F,4 D,4 | A,,2 B,,4 F,,2 | C,4 C,4 | C,4 C,4 | F,2 (B,,4 C,2 | F,,2) G,,2 C,4 :|[M:2/2] D,4 | %7
 C,6 G,,2 | A,,2 B,,2 G,,2 D,2 | A,,4 A,,4 | D,6 D,2 | C,2 _E,2 D,4 | G,,4 G,,4 | D,4 A,,2 (B,,2- | %14
 B,,2 C,2 D,2 A,,2) | C,4 F,8 |] %16

